X: 1
T: Ashokan Farewell
%date: 1982
C: Jay Ungar, 1982.
R: waltz
N: (c) 1983 by Swinging Door Music-BMI
N: Jay Ungar <fiddlerjay:aol.com>, <Ashokan.aol.com>
N:
N: "At the end of the third summer of Ashokan in '82, I was particularly feeling the
N: post-camp syndrome of finding it hard to return to what we mistakenly call the
N: 'real world.' I really missed the people and the joy of having music and dance
N: so much a part of my daily life. Kind of like 'Brigadoon,' it's a world of its
N: own, separate from the rest of life. And each summer when these things end, you
N: don't really know if it'll happen again. So one morning I picked up my fiddle
N: and started playing the saddest lament I could come up with - as a way of saying
N: goodbye to that summer". Jay Ungar, RD 1 Box 489, West Hurley, NY 12491
N:
N: "Ashokan Farewell" is the 'goodbye' tune played at the end of each week of the
N: music and dance camp run by Jay Ungar and Molly Mason, and holds emotional
N: memories for many who have enjoyed the Ashokan experience. Fiddle Fever's
N: arrangement of "Ashokan Farewell" was the cornerstone for the soundtrack of the
N: celebrated PBS series, "The Civil War", (Electra/Nonesuch) which won a Grammy
N: award and was nominated for an Emmy. It's also recorded on "Songs of the Civil
N: War" (Sony/CBS); on "Waltz of the Wind"; and on "The Best of Fiddle Fever"
N: (Flying Fish).
N:
N: From "The Waltz Book", Bill Matthiesen.
N:
Z: John Erdman <jperdman:agate.NET>
M: 3/4
L: 1/8
B: The Waltz Book I
K: D
Ac |\
"D"d3 cBA | "D7"F4 EF | "G"G3 FED | "Em"B,2 D3 B, | "D"A,2 D2 F2 | A2 d2 f2 | "G"f3 gf2 | "A7"e4 Ac |
"D"d3 cBA | "D7"F4 EF | "G"G3 FED | "Em"B,2 D3 B, | "D"A,2 D2 F2 | A2 d2 f2 | "A7"A2 c2 e2 | "D"d4 |]
FG |\
"D"A3 FD2 | d4 A2 | "G"B3 cd2 | "D"A F3 E2 | "Bm"F3 ED2 | "G(Em)"B,4 G,2 | "A7"A,6 | A4 FE |
"D"D2 F2 A2 | "C"=c6 | "G"B3 cd2 | "D"A2 F2 D2 | A,2 D2 F2 | A2 d2 F2 | "A7"E3 DC2 | "D"D4 |]

%%newpage

#abcjoin: UCT=1.
#abcjoin: sep=2.


